!!!OTL: WAS SIND DIE GASSEN SO ENGE
!!!ARE: Europa, Mitteleuropa, Deutschland, Kreis Wetzlar, Burgsolms
!!!SCT: E0107D
!!!YEM: Copyright 1995, estate of Helmut Schaffrath.
**kern
*ICvox
*Ivox
*M6/8
*k[]
*C:
{16c
16e
=1
4g
8g
8g
8f
8d
=2
4.g
8e
8r}
{16c
16e
=3
4g
8g
8g
8f
8d
=4
4.g
8e
8r}
{8c
=5
4a
8a
8g
8a
8b
=6
8cc
8b
8a
4g}
{8cc
=7
8g
8a
8g
8f
8e
8d
=8
8a
8g
8f
4e}
==
!!!AGN: erzaehlendes Volks - Lied, Sage, Liebe, Leid, Tod, Ballade ?
!!!ONB: ESAC (Essen Associative Code) Database: ERK1
!!!AMT: compound duple
!!!AIN: vox
!!!EED: Helmut Schaffrath
!!!EEV: 1.0
*-
